flaticon/science/dropper-2.svg

<svg xmlns="http://www.w3.org/2000/svg" width="32" height="32" viewBox="0 0 24 24">
    <path d="M 15.824219 0 C 11.324219 0 7.644531 3.679688 7.644531 8.175781 C 7.644531 9.230469 7.847656 10.238281 8.214844 11.164062 L 7.441406 11.9375 C 7.058594 12.320312 6.972656 12.878906 7.1875 13.335938 L 2.535156 17.988281 C 2.003906 18.519531 1.636719 19.214844 1.554688 19.953125 C 1.472656 20.523438 1.226562 21.054688 0.816406 21.464844 L 0.367188 21.914062 C -0.121094 22.363281 -0.121094 23.140625 0.367188 23.632812 C 0.574219 23.878906 0.898438 24 1.226562 24 C 1.554688 24 1.839844 23.878906 2.085938 23.632812 L 2.535156 23.183594 C 2.945312 22.773438 3.476562 22.527344 4.046875 22.445312 C 4.785156 22.324219 5.480469 21.996094 6.011719 21.464844 L 8.789062 18.683594 C 8.828125 18.648438 8.851562 18.609375 8.871094 18.566406 L 10.636719 16.796875 C 10.816406 16.882812 11.007812 16.925781 11.203125 16.925781 C 11.53125 16.925781 11.855469 16.804688 12.0625 16.558594 L 12.835938 15.785156 C 13.761719 16.152344 14.769531 16.355469 15.824219 16.355469 C 20.320312 16.355469 24 12.675781 24 8.175781 C 24 3.679688 20.320312 0 15.824219 0 Z M 8.339844 17.988281 L 3.714844 17.988281 L 7.707031 13.960938 L 10.039062 16.292969 Z M 0.941406 23.058594 C 0.777344 22.894531 0.777344 22.652344 0.941406 22.488281 L 1.390625 22.078125 C 1.921875 21.546875 2.25 20.851562 2.371094 20.117188 C 2.441406 19.632812 2.625 19.183594 2.925781 18.808594 L 7.523438 18.808594 L 5.4375 20.894531 C 5.027344 21.261719 4.496094 21.546875 3.925781 21.628906 C 3.1875 21.75 2.492188 22.078125 1.960938 22.609375 L 1.511719 23.058594 C 1.347656 23.222656 1.105469 23.222656 0.941406 23.058594 Z M 11.53125 15.988281 C 11.367188 16.148438 11.078125 16.148438 10.917969 15.988281 L 8.054688 13.125 C 7.890625 12.960938 7.890625 12.675781 8.054688 12.511719 L 8.574219 11.949219 C 8.644531 12.085938 8.71875 12.21875 8.796875 12.347656 C 9.136719 12.949219 9.554688 13.480469 10.058594 13.984375 C 10.628906 14.597656 11.324219 15.085938 12.0625 15.453125 Z M 15.824219 15.535156 C 11.773438 15.535156 8.464844 12.226562 8.464844 8.175781 C 8.464844 4.128906 11.773438 0.816406 15.824219 0.816406 C 19.871094 0.816406 23.183594 4.128906 23.183594 8.175781 C 23.183594 12.226562 19.871094 15.535156 15.824219 15.535156 Z M 15.824219 15.535156"/>
    <path d="M 15.824219 1.636719 C 13.410156 1.636719 11.285156 2.945312 10.140625 5.109375 C 10.015625 5.316406 10.097656 5.558594 10.304688 5.683594 C 10.386719 5.722656 10.425781 5.722656 10.507812 5.722656 C 10.671875 5.722656 10.792969 5.640625 10.875 5.519531 C 11.898438 3.597656 13.738281 2.453125 15.824219 2.453125 C 16.066406 2.453125 16.230469 2.289062 16.230469 2.042969 C 16.230469 1.800781 16.066406 1.636719 15.824219 1.636719 Z M 15.824219 1.636719"/>
</svg>

<svg xmlns="http://www.w3.org/2000/svg" width="32" height="32" viewBox="0 0 24 24">
    <path d="M15.824 0c-4.5 0-8.18 3.68-8.18 8.176 0 1.054.204 2.062.57 2.988l-.773.774a1.232 1.232 0 0 0-.253 1.398l-4.653 4.652c-.531.532-.898 1.227-.98 1.965a2.652 2.652 0 0 1-.739 1.512l-.449.45c-.488.448-.488 1.226 0 1.718.207.246.531.367.86.367.328 0 .613-.121.859-.367l.45-.45c.41-.41.94-.656 1.51-.738a3.585 3.585 0 0 0 1.966-.98l2.777-2.781a.337.337 0 0 0 .082-.118l1.766-1.77c.18.087.37.13.566.13.328 0 .652-.121.86-.367l.773-.774c.926.367 1.934.57 2.988.57 4.496 0 8.176-3.68 8.176-8.18C24 3.68 20.32 0 15.824 0zM8.34 17.988H3.715l3.992-4.027 2.332 2.332zM.94 23.058a.392.392 0 0 1 0-.57l.45-.41c.53-.531.859-1.226.98-1.96a2.69 2.69 0 0 1 .555-1.31h4.597l-2.085 2.087c-.41.367-.942.652-1.512.734a3.585 3.585 0 0 0-1.965.98l-.45.45a.392.392 0 0 1-.57 0zm10.59-7.07a.451.451 0 0 1-.613 0l-2.863-2.863a.444.444 0 0 1 0-.613l.52-.563c.07.137.144.27.222.399.34.601.758 1.132 1.262 1.636a6.966 6.966 0 0 0 2.004 1.47zm4.293-.453c-4.05 0-7.36-3.308-7.36-7.36 0-4.046 3.31-7.359 7.36-7.359 4.047 0 7.36 3.313 7.36 7.36 0 4.05-3.313 7.36-7.36 7.36zm0 0"/>
    <path d="M15.824 1.637c-2.414 0-4.539 1.308-5.683 3.472-.125.207-.043.45.164.575.082.039.12.039.203.039a.43.43 0 0 0 .367-.203c1.023-1.922 2.863-3.067 4.95-3.067.241 0 .405-.164.405-.41a.385.385 0 0 0-.406-.406zm0 0"/>
</svg>
